!!!SOCIAL_FUNCTION:	songs of the sun dance
!!!PDT:	1922
!!!OTL: No_23_Sun_Dance_Song_(f).krn
!!!REG: Southwest
!!!LANG: Non-Tone
!!!LING_GROUP: Uto-Aztecan
**kern
*staff1
=1-
*clefF4
*k[b-e-a-d-g-]
*M3/4
2f\
32f\LLK
16.e-\J
8d-\J
=2
4B-\
8F\L
8F\J
8G-\L
8F\J
=3||
*M2/4
2F\
=4||
*M3/4
8E-\L
8E-\J
2E-\
=5
8E-/L
16C/L
16BB-/JJ
2BB-/
=6||
*M2/4
8F\L
8F\J
4F\
=7||
*M3/4
4G-\
2G-\
=8
8F\L
8F\J
2F\
=9||
*M2/4
8F\L
8F\J
[4F\
=10
8F\L]
8F\J
8G-\L
8F\J
=11
2F\
==
*-
